communes/4751.svg

<?xml version="1.0" encoding="UTF-8" standalone="no"?>
<!-- Created with Inkscape (http://www.inkscape.org/) -->

<svg
   xmlns:dc="http://purl.org/dc/elements/1.1/"
   xmlns:cc="http://creativecommons.org/ns#"
   xmlns:rdf="http://www.w3.org/1999/02/22-rdf-syntax-ns#"
   xmlns:svg="http://www.w3.org/2000/svg"
   xmlns="http://www.w3.org/2000/svg"
   xmlns:xlink="http://www.w3.org/1999/xlink"
   xmlns:sodipodi="http://sodipodi.sourceforge.net/DTD/sodipodi-0.dtd"
   xmlns:inkscape="http://www.inkscape.org/namespaces/inkscape"
   version="1.0"
   width="208.86046"
   height="244.65999"
   id="svg2780"
   inkscape:version="0.92.3 (2405546, 2018-03-11)"
   sodipodi:docname="Rickenbach-blazon.svg">
  <metadata
     id="metadata27">
    <rdf:RDF>
      <cc:Work
         rdf:about="">
        <dc:format>image/svg+xml</dc:format>
        <dc:type
           rdf:resource="http://purl.org/dc/dcmitype/StillImage" />
        <dc:title></dc:title>
      </cc:Work>
    </rdf:RDF>
  </metadata>
  <sodipodi:namedview
     pagecolor="#ffffff"
     bordercolor="#666666"
     borderopacity="1"
     objecttolerance="10"
     gridtolerance="10"
     guidetolerance="10"
     inkscape:pageopacity="0"
     inkscape:pageshadow="2"
     inkscape:window-width="1804"
     inkscape:window-height="1251"
     id="namedview25"
     showgrid="false"
     inkscape:zoom="2.35"
     inkscape:cx="185.92527"
     inkscape:cy="173.83875"
     inkscape:window-x="33"
     inkscape:window-y="16"
     inkscape:window-maximized="0"
     inkscape:current-layer="svg2780"
     inkscape:measure-start="104.255,149.787"
     inkscape:measure-end="104.255,126.383"
     inkscape:object-paths="true"
     inkscape:snap-nodes="true" />
  <defs
     id="defs2782" />
  <path
     inkscape:connector-curvature="0"
     style="fill:#000000;fill-opacity:1;fill-rule:evenodd;stroke:#000000;stroke-width:1.99999988;stroke-linecap:butt;stroke-miterlimit:4;stroke-dashoffset:0;stroke-opacity:1"
     id="path4212"
     d="m 1,1 3.761095,158.00304 c 2.686489,112.85918 196.651755,112.85918 199.338255,0 L 207.86045,1 Z" />
  <g
     id="g6763"
     transform="translate(0,2)">
    <path
       sodipodi:nodetypes="ccccc"
       inkscape:connector-curvature="0"
       id="path6467"
       d="m 26.99234,194.21565 h 154.6562 c -5.87519,-5.87519 -4,-85.00326 -4,-85.00326 H 30.99234 c 0,0 1.7502,79.25306 -4,85.00326 z"
       style="fill:#feeb00;fill-opacity:1;fill-rule:evenodd;stroke:#000000;stroke-width:1px;stroke-linecap:butt;stroke-linejoin:miter;stroke-opacity:1" />
    <path
       sodipodi:nodetypes="cc"
       inkscape:tile-y0="54.192502"
       inkscape:tile-x0="30.49234"
       inkscape:tile-h="142.02315"
       inkscape:tile-w="1"
       inkscape:tile-cy="125.20408"
       inkscape:tile-cx="30.99234"
       inkscape:connector-curvature="0"
       id="path1468"
       d="M 40.769421,147.87275 V 52.192502"
       style="fill:none;fill-rule:evenodd;stroke:#000000;stroke-width:1px;stroke-linecap:butt;stroke-linejoin:miter;stroke-opacity:1" />
    <path
       sodipodi:nodetypes="cc"
       style="fill:none;fill-rule:evenodd;stroke:#000000;stroke-width:1px;stroke-linecap:butt;stroke-linejoin:miter;stroke-opacity:1"
       d="M 50.546502,194.21565 V 109.21239"
       id="use5201"
       inkscape:connector-curvature="0"
       inkscape:tile-x0="30.49234"
       inkscape:tile-y0="54.192502" />
    <path
       sodipodi:nodetypes="cc"
       style="fill:none;fill-rule:evenodd;stroke:#000000;stroke-width:1px;stroke-linecap:butt;stroke-linejoin:miter;stroke-opacity:1"
       d="M 60.323584,167.05413 V 109.21239"
       id="use5203"
       inkscape:connector-curvature="0"
       inkscape:tile-x0="30.49234"
       inkscape:tile-y0="54.192502" />
    <path
       sodipodi:nodetypes="cc"
       style="fill:none;fill-rule:evenodd;stroke:#000000;stroke-width:1px;stroke-linecap:butt;stroke-linejoin:miter;stroke-opacity:1"
       d="M 70.100661,157.77465 V 109.21239"
       id="use5205"
       inkscape:connector-curvature="0"
       inkscape:tile-x0="30.49234"
       inkscape:tile-y0="54.192502" />
    <path
       sodipodi:nodetypes="cc"
       style="fill:none;fill-rule:evenodd;stroke:#000000;stroke-width:1px;stroke-linecap:butt;stroke-linejoin:miter;stroke-opacity:1"
       d="M 79.877746,151.98161 V 52.192502"
       id="use5207"
       inkscape:connector-curvature="0"
       inkscape:tile-x0="30.49234"
       inkscape:tile-y0="54.192502" />
    <path
       sodipodi:nodetypes="cc"
       style="fill:none;fill-rule:evenodd;stroke:#000000;stroke-width:1px;stroke-linecap:butt;stroke-linejoin:miter;stroke-opacity:1"
       d="M 89.654824,148.76573 V 52.192502"
       id="use5209"
       inkscape:connector-curvature="0"
       inkscape:tile-x0="30.49234"
       inkscape:tile-y0="54.192502" />
    <path
       sodipodi:nodetypes="cc"
       style="fill:none;fill-rule:evenodd;stroke:#000000;stroke-width:1px;stroke-linecap:butt;stroke-linejoin:miter;stroke-opacity:1"
       d="M 99.431901,147.17052 V 109.21239"
       id="use5211"
       inkscape:connector-curvature="0"
       inkscape:tile-x0="30.49234"
       inkscape:tile-y0="54.192502" />
    <path
       sodipodi:nodetypes="cc"
       style="fill:none;fill-rule:evenodd;stroke:#000000;stroke-width:1px;stroke-linecap:butt;stroke-linejoin:miter;stroke-opacity:1"
       d="M 109.20899,147.17052 V 109.21239"
       id="use5213"
       inkscape:connector-curvature="0"
       inkscape:tile-x0="30.49234"
       inkscape:tile-y0="54.192502" />
    <path
       sodipodi:nodetypes="cc"
       style="fill:none;fill-rule:evenodd;stroke:#000000;stroke-width:1px;stroke-linecap:butt;stroke-linejoin:miter;stroke-opacity:1"
       d="M 118.98607,148.76574 V 52.192502"
       id="use5215"
       inkscape:connector-curvature="0"
       inkscape:tile-x0="30.49234"
       inkscape:tile-y0="54.192502" />
    <path
       sodipodi:nodetypes="cc"
       style="fill:none;fill-rule:evenodd;stroke:#000000;stroke-width:1px;stroke-linecap:butt;stroke-linejoin:miter;stroke-opacity:1"
       d="M 138.54022,157.77465 V 109.21239"
       id="use5219"
       inkscape:connector-curvature="0"
       inkscape:tile-x0="30.49234"
       inkscape:tile-y0="54.192502" />
    <path
       sodipodi:nodetypes="cc"
       style="fill:none;fill-rule:evenodd;stroke:#000000;stroke-width:1px;stroke-linecap:butt;stroke-linejoin:miter;stroke-opacity:1"
       d="M 148.3173,167.05413 V 109.21239"
       id="use5221"
       inkscape:connector-curvature="0"
       inkscape:tile-x0="30.49234"
       inkscape:tile-y0="54.192502" />
    <path
       sodipodi:nodetypes="cc"
       style="fill:none;fill-rule:evenodd;stroke:#000000;stroke-width:1px;stroke-linecap:butt;stroke-linejoin:miter;stroke-opacity:1"
       d="M 158.09439,194.21565 V 109.21239"
       id="use5223"
       inkscape:connector-curvature="0"
       inkscape:tile-x0="30.49234"
       inkscape:tile-y0="54.192502" />
    <path
       sodipodi:nodetypes="cc"
       style="fill:none;fill-rule:evenodd;stroke:#000000;stroke-width:1px;stroke-linecap:butt;stroke-linejoin:miter;stroke-opacity:1"
       d="M 167.87146,147.87275 V 52.192502"
       id="use5225"
       inkscape:connector-curvature="0"
       inkscape:tile-x0="30.49234"
       inkscape:tile-y0="54.192502" />
    <path
       d="m 50.546505,194.21565 a 53.773937,47.240749 0 0 1 53.773935,-47.24075 53.773937,47.240749 0 0 1 53.77394,47.24075"
       sodipodi:open="true"
       sodipodi:end="0"
       sodipodi:start="3.1415927"
       sodipodi:ry="47.240749"
       sodipodi:rx="53.773937"
       sodipodi:cy="194.21565"
       sodipodi:cx="104.32044"
       sodipodi:type="arc"
       id="path5229"
       style="fill:#000000;fill-opacity:1;stroke:#000000;stroke-width:1;stroke-miterlimit:4;stroke-dasharray:none;stroke-opacity:1" />
    <path
       sodipodi:nodetypes="cc"
       style="fill:none;fill-rule:evenodd;stroke:#000000;stroke-width:1px;stroke-linecap:butt;stroke-linejoin:miter;stroke-opacity:1"
       d="M 128.76316,152.13721 V 52.192502"
       id="use5217"
       inkscape:connector-curvature="0"
       inkscape:tile-x0="30.49234"
       inkscape:tile-y0="54.192502" />
    <path
       inkscape:connector-curvature="0"
       id="path5274"
       d="m 28.99234,104.39805 v 4.81434 h 150.6562 v -4.81434 z"
       style="fill:#feeb00;fill-opacity:1;fill-rule:evenodd;stroke:#000000;stroke-width:1px;stroke-linecap:butt;stroke-linejoin:miter;stroke-opacity:1" />
    <path
       inkscape:connector-curvature="0"
       id="path5276"
       d="M 89.654824,77.467808 H 118.98607"
       style="fill:none;fill-rule:evenodd;stroke:#000000;stroke-width:1px;stroke-linecap:butt;stroke-linejoin:miter;stroke-opacity:1" />
    <path
       inkscape:connector-curvature="0"
       id="path5278"
       d="M 118.98607,86.043359 H 89.654824"
       style="fill:none;fill-rule:evenodd;stroke:#000000;stroke-width:1px;stroke-linecap:butt;stroke-linejoin:miter;stroke-opacity:1" />
    <g
       transform="translate(0,-2)"
       style="stroke:#000000;stroke-opacity:1"
       id="g5286">
      <path
         style="fill:none;fill-rule:evenodd;stroke:#000000;stroke-width:1px;stroke-linecap:butt;stroke-linejoin:miter;stroke-opacity:1"
         d="m 128.76316,92.105461 14.29259,14.292589"
         id="path5280"
         inkscape:connector-curvature="0" />
      <path
         style="fill:none;fill-rule:evenodd;stroke:#000000;stroke-width:1px;stroke-linecap:butt;stroke-linejoin:miter;stroke-opacity:1"
         d="m 128.76316,81.122739 25.27531,25.275311"
         id="path5282"
         inkscape:connector-curvature="0" />
    </g>
    <g
       style="stroke:#000000;stroke-opacity:1"
       id="g5286-7"
       transform="matrix(-1,0,0,1,208.64091,-1.9999972)">
      <path
         style="fill:none;fill-rule:evenodd;stroke:#000000;stroke-width:1px;stroke-linecap:butt;stroke-linejoin:miter;stroke-opacity:1"
         d="m 128.76316,92.105461 14.29259,14.292589"
         id="path5280-2"
         inkscape:connector-curvature="0" />
      <path
         style="fill:none;fill-rule:evenodd;stroke:#000000;stroke-width:1px;stroke-linecap:butt;stroke-linejoin:miter;stroke-opacity:1"
         d="m 128.76316,81.122739 25.27531,25.275311"
         id="path5282-1"
         inkscape:connector-curvature="0" />
    </g>
    <g
       transform="translate(0,-2)"
       style="stroke:#000000;stroke-opacity:1"
       id="g5319">
      <path
         style="fill:none;fill-rule:evenodd;stroke:#000000;stroke-width:1px;stroke-linecap:butt;stroke-linejoin:miter;stroke-opacity:1"
         d="M 40.769421,78.489895 57.152519,62.106797"
         id="path5313"
         inkscape:connector-curvature="0" />
      <path
         style="fill:none;fill-rule:evenodd;stroke:#000000;stroke-width:1px;stroke-linecap:butt;stroke-linejoin:miter;stroke-opacity:1"
         d="M 40.769421,89.397393 68.060017,62.106797"
         id="path5315"
         inkscape:connector-curvature="0" />
    </g>
    <path
       inkscape:connector-curvature="0"
       id="path5313-9"
       d="M 167.87146,76.4899 151.48836,60.106802"
       style="fill:none;fill-rule:evenodd;stroke:#000000;stroke-width:1px;stroke-linecap:butt;stroke-linejoin:miter;stroke-opacity:1" />
    <path
       inkscape:connector-curvature="0"
       id="path5315-8"
       d="M 167.87146,87.397398 140.58086,60.106802"
       style="fill:none;fill-rule:evenodd;stroke:#000000;stroke-width:1px;stroke-linecap:butt;stroke-linejoin:miter;stroke-opacity:1" />
    <path
       sodipodi:nodetypes="ccccc"
       inkscape:connector-curvature="0"
       id="path5311-4"
       d="m 25.885957,52.192498 v 7.914295 H 182.75492 v -7.914295 z"
       style="fill:#feeb00;fill-opacity:1;fill-rule:evenodd;stroke:#000000;stroke-width:1px;stroke-linecap:butt;stroke-linejoin:miter;stroke-opacity:1" />
    <path
       inkscape:connector-curvature="0"
       id="path5801"
       d="M 30.99234,147.87275 H 50.546502"
       style="fill:none;fill-rule:evenodd;stroke:#000000;stroke-width:1px;stroke-linecap:butt;stroke-linejoin:miter;stroke-opacity:1" />
    <path
       inkscape:connector-curvature="0"
       id="path5801-7"
       d="m 158.09438,147.87275 h 19.55416"
       style="fill:none;fill-rule:evenodd;stroke:#000000;stroke-width:1px;stroke-linecap:butt;stroke-linejoin:miter;stroke-opacity:1" />
    <path
       inkscape:connector-curvature="0"
       id="path6419"
       d="m 30.99234,52.192502 v 52.205548 h 9.777081 V 52.192502 Z"
       style="fill:#feeb00;fill-opacity:1;fill-rule:evenodd;stroke:#000000;stroke-width:1px;stroke-linecap:butt;stroke-linejoin:miter;stroke-opacity:1" />
    <path
       inkscape:connector-curvature="0"
       id="path6419-2"
       d="m 167.87146,52.192498 v 52.205552 h 9.77708 V 52.192498 Z"
       style="fill:#feeb00;fill-opacity:1;fill-rule:evenodd;stroke:#000000;stroke-width:1px;stroke-linecap:butt;stroke-linejoin:miter;stroke-opacity:1" />
    <path
       inkscape:connector-curvature="0"
       id="path6419-5"
       d="m 79.877743,52.192498 v 52.205552 h 9.777081 V 52.192498 Z"
       style="fill:#feeb00;fill-opacity:1;fill-rule:evenodd;stroke:#000000;stroke-width:1px;stroke-linecap:butt;stroke-linejoin:miter;stroke-opacity:1" />
    <path
       inkscape:connector-curvature="0"
       id="path6419-50"
       d="m 118.98608,52.192498 v 52.205552 h 9.77708 V 52.192498 Z"
       style="fill:#feeb00;fill-opacity:1;fill-rule:evenodd;stroke:#000000;stroke-width:1px;stroke-linecap:butt;stroke-linejoin:miter;stroke-opacity:1" />
    <path
       inkscape:connector-curvature="0"
       id="path6448"
       d="M 40.769421,87.397393 68.060017,60.106797 H 57.152519 L 40.769421,76.489895 v 10.907498"
       style="fill:#feeb00;fill-opacity:1;fill-rule:evenodd;stroke:#000000;stroke-width:1px;stroke-linecap:butt;stroke-linejoin:miter;stroke-opacity:1" />
    <path
       inkscape:connector-curvature="0"
       id="path6448-3"
       d="m 167.81357,87.397394 -27.2906,-27.290596 h 10.9075 l 16.3831,16.383098 v 10.907498"
       style="fill:#feeb00;fill-opacity:1;fill-rule:evenodd;stroke:#000000;stroke-width:1px;stroke-linecap:butt;stroke-linejoin:miter;stroke-opacity:1" />
    <path
       inkscape:connector-curvature="0"
       id="path6469"
       d="M 89.654824,86.043359 H 118.98607 V 77.467808 H 89.654824 Z"
       style="fill:#feeb00;fill-opacity:1;fill-rule:evenodd;stroke:#000000;stroke-width:1px;stroke-linecap:butt;stroke-linejoin:miter;stroke-opacity:1" />
    <path
       inkscape:connector-curvature="0"
       id="path6471"
       d="m 128.76316,90.105461 14.29259,14.292589 h 10.98272 L 128.76316,79.122739 Z"
       style="fill:#feeb00;fill-opacity:1;fill-rule:evenodd;stroke:#000000;stroke-width:1px;stroke-linecap:butt;stroke-linejoin:miter;stroke-opacity:1" />
    <path
       inkscape:connector-curvature="0"
       id="path6471-4"
       d="M 79.859963,90.105457 65.567373,104.39805 H 54.584653 L 79.859963,79.122735 Z"
       style="fill:#feeb00;fill-opacity:1;fill-rule:evenodd;stroke:#000000;stroke-width:1px;stroke-linecap:butt;stroke-linejoin:miter;stroke-opacity:1" />
    <path
       inkscape:tile-y0="49.395222"
       inkscape:tile-x0="19.385957"
       inkscape:tile-h="5.297274"
       inkscape:tile-w="169.86896"
       inkscape:tile-cy="52.043859"
       inkscape:tile-cx="104.32044"
       inkscape:connector-curvature="0"
       id="path5311-4-8"
       d="m 19.885957,47.895222 v 4.297274 H 188.75492 v -4.297274 z"
       style="fill:#feeb00;fill-opacity:1;fill-rule:evenodd;stroke:#000000;stroke-width:1px;stroke-linecap:butt;stroke-linejoin:miter;stroke-opacity:1" />
    <use
       height="100%"
       width="100%"
       id="use6528"
       xlink:href="#path5311-4-8"
       inkscape:tiled-clone-of="#path5311-4-8"
       y="0"
       x="0" />
    <use
       height="100%"
       width="100%"
       id="use6530"
       xlink:href="#path5311-4-8"
       inkscape:tiled-clone-of="#path5311-4-8"
       y="0"
       x="0" />
    <use
       height="100%"
       width="100%"
       id="use6532"
       xlink:href="#path5311-4-8"
       inkscape:tiled-clone-of="#path5311-4-8"
       y="0"
       x="0" />
    <use
       height="100%"
       width="100%"
       id="use6534"
       xlink:href="#path5311-4-8"
       inkscape:tiled-clone-of="#path5311-4-8"
       y="0"
       x="0" />
    <use
       height="100%"
       width="100%"
       id="use6536"
       xlink:href="#path5311-4-8"
       inkscape:tiled-clone-of="#path5311-4-8"
       y="0"
       x="0" />
    <use
       height="100%"
       width="100%"
       id="use6538"
       xlink:href="#path5311-4-8"
       inkscape:tiled-clone-of="#path5311-4-8"
       y="0"
       x="0" />
    <use
       height="100%"
       width="100%"
       id="use6540"
       xlink:href="#path5311-4-8"
       inkscape:tiled-clone-of="#path5311-4-8"
       y="0"
       x="0" />
    <use
       height="100%"
       width="100%"
       inkscape:tile-y0="49.395222"
       inkscape:tile-x0="19.385957"
       inkscape:tile-h="5.297274"
       inkscape:tile-w="169.86896"
       inkscape:tile-cy="52.043859"
       inkscape:tile-cx="104.32044"
       id="use6542"
       xlink:href="#path5311-4-8"
       inkscape:tiled-clone-of="#path5311-4-8"
       y="0"
       x="0" />
    <use
       height="100%"
       width="100%"
       id="use6688"
       xlink:href="#use6542"
       inkscape:tiled-clone-of="#use6542"
       y="0"
       x="0" />
    <use
       height="100%"
       width="100%"
       id="use6690"
       transform="matrix(0.95,0,0,1,5.2160219,-4.297274)"
       xlink:href="#use6542"
       inkscape:tiled-clone-of="#use6542"
       y="0"
       x="0" />
    <use
       height="100%"
       width="100%"
       id="use6692"
       transform="matrix(0.9,0,0,1,10.432044,-8.594548)"
       xlink:href="#use6542"
       inkscape:tiled-clone-of="#use6542"
       y="0"
       x="0" />
    <use
       height="100%"
       width="100%"
       id="use6694"
       transform="matrix(0.85,0,0,1,15.648066,-12.891822)"
       xlink:href="#use6542"
       inkscape:tiled-clone-of="#use6542"
       y="0"
       x="0" />
    <use
       height="100%"
       width="100%"
       id="use6696"
       transform="matrix(0.8,0,0,1,20.864088,-17.189096)"
       xlink:href="#use6542"
       inkscape:tiled-clone-of="#use6542"
       y="0"
       x="0" />
    <use
       height="100%"
       width="100%"
       id="use6698"
       transform="matrix(0.75,0,0,1,26.08011,-21.48637)"
       xlink:href="#use6542"
       inkscape:tiled-clone-of="#use6542"
       y="0"
       x="0" />
    <use
       height="100%"
       width="100%"
       id="use6700"
       transform="matrix(0.7,0,0,1,31.296132,-25.783644)"
       xlink:href="#use6542"
       inkscape:tiled-clone-of="#use6542"
       y="0"
       x="0" />
    <use
       height="100%"
       width="100%"
       id="use6702"
       transform="matrix(0.65,0,0,1,36.512153,-30.080918)"
       xlink:href="#use6542"
       inkscape:tiled-clone-of="#use6542"
       y="0"
       x="0" />
  </g>
</svg>

<?xml version="1.0" encoding="UTF-8"?>
<svg version="1.0" viewBox="0 0 208.86 244.66" xmlns="http://www.w3.org/2000/svg" xmlns:cc="http://creativecommons.org/ns#" xmlns:dc="http://purl.org/dc/elements/1.1/" xmlns:rdf="http://www.w3.org/1999/02/22-rdf-syntax-ns#" xmlns:xlink="http://www.w3.org/1999/xlink">
<metadata>
<rdf:RDF>
<cc:Work rdf:about="">
<dc:format>image/svg+xml</dc:format>
<dc:type rdf:resource="http://purl.org/dc/dcmitype/StillImage"/>
<dc:title/>
</cc:Work>
</rdf:RDF>
</metadata>
<path d="m1 1 3.7611 158c2.6865 112.86 196.65 112.86 199.34 0l3.7611-158z" fill-rule="evenodd" stroke="#000" stroke-width="2"/>
<g transform="translate(0,2)">
<path d="m26.992 194.22h154.66c-5.8752-5.8752-4-85.003-4-85.003h-146.66s1.7502 79.253-4 85.003z" fill="#feeb00" fill-rule="evenodd" stroke="#000" stroke-width="1px"/>
<path d="m40.769 147.87v-95.68" fill="none" stroke="#000" stroke-width="1px"/>
<path d="m50.547 194.22v-85.003" fill="none" stroke="#000" stroke-width="1px"/>
<path d="m60.324 167.05v-57.842" fill="none" stroke="#000" stroke-width="1px"/>
<path d="m70.101 157.77v-48.562" fill="none" stroke="#000" stroke-width="1px"/>
<path d="m79.878 151.98v-99.789" fill="none" stroke="#000" stroke-width="1px"/>
<path d="m89.655 148.77v-96.573" fill="none" stroke="#000" stroke-width="1px"/>
<path d="m99.432 147.17v-37.958" fill="none" stroke="#000" stroke-width="1px"/>
<path d="m109.21 147.17v-37.958" fill="none" stroke="#000" stroke-width="1px"/>
<path d="m118.99 148.77v-96.573" fill="none" stroke="#000" stroke-width="1px"/>
<path d="m138.54 157.77v-48.562" fill="none" stroke="#000" stroke-width="1px"/>
<path d="m148.32 167.05v-57.842" fill="none" stroke="#000" stroke-width="1px"/>
<path d="m158.09 194.22v-85.003" fill="none" stroke="#000" stroke-width="1px"/>
<path d="m167.87 147.87v-95.68" fill="none" stroke="#000" stroke-width="1px"/>
<path d="m50.547 194.22a53.774 47.241 0 0 1 53.774-47.241 53.774 47.241 0 0 1 53.774 47.241" stroke="#000"/>
<path d="m128.76 152.14v-99.945" fill="none" stroke="#000" stroke-width="1px"/>
<path d="m28.992 104.4v4.8143h150.66v-4.8143z" fill="#feeb00" fill-rule="evenodd" stroke="#000" stroke-width="1px"/>
<path d="m89.655 77.468h29.331" fill="none" stroke="#000" stroke-width="1px"/>
<path d="m118.99 86.043h-29.331" fill="none" stroke="#000" stroke-width="1px"/>
<g transform="translate(0,-2)" fill="none" stroke="#000" stroke-width="1px">
<path d="m128.76 92.105 14.293 14.293"/>
<path d="m128.76 81.123 25.275 25.275"/>
</g>
<g transform="matrix(-1 0 0 1 208.64 -2)" fill="none" stroke="#000" stroke-width="1px">
<path d="m128.76 92.105 14.293 14.293"/>
<path d="m128.76 81.123 25.275 25.275"/>
</g>
<g transform="translate(0,-2)" fill="none" stroke="#000" stroke-width="1px">
<path d="m40.769 78.49 16.383-16.383"/>
<path d="m40.769 89.397 27.291-27.291"/>
</g>
<path d="m167.87 76.49-16.383-16.383" fill="none" stroke="#000" stroke-width="1px"/>
<path d="m167.87 87.397-27.291-27.291" fill="none" stroke="#000" stroke-width="1px"/>
<path d="m25.886 52.192v7.9143h156.87v-7.9143z" fill="#feeb00" fill-rule="evenodd" stroke="#000" stroke-width="1px"/>
<path d="m30.992 147.87h19.554" fill="none" stroke="#000" stroke-width="1px"/>
<path d="m158.09 147.87h19.554" fill="none" stroke="#000" stroke-width="1px"/>
<path d="m30.992 52.193v52.206h9.7771v-52.206z" fill="#feeb00" fill-rule="evenodd" stroke="#000" stroke-width="1px"/>
<path d="m167.87 52.192v52.206h9.7771v-52.206z" fill="#feeb00" fill-rule="evenodd" stroke="#000" stroke-width="1px"/>
<path d="m79.878 52.192v52.206h9.7771v-52.206z" fill="#feeb00" fill-rule="evenodd" stroke="#000" stroke-width="1px"/>
<path d="m118.99 52.192v52.206h9.7771v-52.206z" fill="#feeb00" fill-rule="evenodd" stroke="#000" stroke-width="1px"/>
<path d="m40.769 87.397 27.291-27.291h-10.907l-16.383 16.383v10.907" fill="#feeb00" fill-rule="evenodd" stroke="#000" stroke-width="1px"/>
<path d="m167.81 87.397-27.291-27.291h10.908l16.383 16.383v10.907" fill="#feeb00" fill-rule="evenodd" stroke="#000" stroke-width="1px"/>
<path d="m89.655 86.043h29.331v-8.5756h-29.331z" fill="#feeb00" fill-rule="evenodd" stroke="#000" stroke-width="1px"/>
<path d="m128.76 90.105 14.293 14.293h10.983l-25.275-25.275z" fill="#feeb00" fill-rule="evenodd" stroke="#000" stroke-width="1px"/>
<path d="m79.86 90.105-14.293 14.293h-10.983l25.275-25.275z" fill="#feeb00" fill-rule="evenodd" stroke="#000" stroke-width="1px"/>
<path id="b" d="m19.886 47.895v4.2973h168.87v-4.2973z" fill="#feeb00" fill-rule="evenodd" stroke="#000" stroke-width="1px"/>
<use width="100%" height="100%" xlink:href="#b"/>
<use width="100%" height="100%" xlink:href="#b"/>
<use width="100%" height="100%" xlink:href="#b"/>
<use width="100%" height="100%" xlink:href="#b"/>
<use width="100%" height="100%" xlink:href="#b"/>
<use width="100%" height="100%" xlink:href="#b"/>
<use width="100%" height="100%" xlink:href="#b"/>
<use id="a" width="100%" height="100%" xlink:href="#b"/>
<use width="100%" height="100%" xlink:href="#a"/>
<use transform="matrix(.95 0 0 1 5.216 -4.2973)" width="100%" height="100%" xlink:href="#a"/>
<use transform="matrix(.9 0 0 1 10.432 -8.5945)" width="100%" height="100%" xlink:href="#a"/>
<use transform="matrix(.85 0 0 1 15.648 -12.892)" width="100%" height="100%" xlink:href="#a"/>
<use transform="matrix(.8 0 0 1 20.864 -17.189)" width="100%" height="100%" xlink:href="#a"/>
<use transform="matrix(.75 0 0 1 26.08 -21.486)" width="100%" height="100%" xlink:href="#a"/>
<use transform="matrix(.7 0 0 1 31.296 -25.784)" width="100%" height="100%" xlink:href="#a"/>
<use transform="matrix(.65 0 0 1 36.512 -30.081)" width="100%" height="100%" xlink:href="#a"/>
</g>
</svg>
